utils/icon设计资源/icons/question-circle-fill.svg

<?xml version="1.0" encoding="UTF-8" standalone="no"?>
<svg
   xmlns:dc="http://purl.org/dc/elements/1.1/"
   xmlns:cc="http://creativecommons.org/ns#"
   xmlns:rdf="http://www.w3.org/1999/02/22-rdf-syntax-ns#"
   xmlns:svg="http://www.w3.org/2000/svg"
   xmlns="http://www.w3.org/2000/svg"
   xmlns:sodipodi="http://sodipodi.sourceforge.net/DTD/sodipodi-0.dtd"
   xmlns:inkscape="http://www.inkscape.org/namespaces/inkscape"
   inkscape:version="1.0 (4035a4fb49, 2020-05-01)"
   sodipodi:docname="question-circle-fill.svg"
   id="svg10621"
   version="1.1"
   fill="currentColor"
   class="bi bi-question-circle-fill"
   viewBox="0 0 16 16"
   height="1em"
   width="1em">
  <metadata
     id="metadata10627">
    <rdf:RDF>
      <cc:Work
         rdf:about="">
        <dc:format>image/svg+xml</dc:format>
        <dc:type
           rdf:resource="http://purl.org/dc/dcmitype/StillImage" />
      </cc:Work>
    </rdf:RDF>
  </metadata>
  <defs
     id="defs10625" />
  <sodipodi:namedview
     inkscape:current-layer="svg10621"
     inkscape:window-maximized="1"
     inkscape:window-y="-9"
     inkscape:window-x="-9"
     inkscape:cy="8"
     inkscape:cx="8"
     inkscape:zoom="51.875"
     showgrid="false"
     id="namedview10623"
     inkscape:window-height="1001"
     inkscape:window-width="1920"
     inkscape:pageshadow="2"
     inkscape:pageopacity="0"
     guidetolerance="10"
     gridtolerance="10"
     objecttolerance="10"
     borderopacity="1"
     bordercolor="#666666"
     pagecolor="#ffffff" />
  <path
     d="M 8.0390625 0 A 8 8 0 0 0 0 8 A 8 8 0 0 0 16 8 A 8 8 0 0 0 8.0390625 0 z M 8.0058594 3.5 C 9.4018594 3.5 10.677734 4.2302344 10.677734 5.7402344 C 10.677734 6.8202344 10.042594 7.333875 9.4335938 7.796875 C 8.6965937 8.355875 8.4238281 8.5652031 8.4238281 9.2832031 L 8.4238281 9.3886719 A 0.25 0.25 0 0 1 8.1738281 9.6386719 L 7.3632812 9.6386719 A 0.25 0.25 0 0 1 7.1132812 9.3925781 L 7.109375 9.1757812 C 7.071375 8.2487813 7.6043438 7.6765 8.2773438 7.1875 C 8.8673437 6.7435 9.2421875 6.4514062 9.2421875 5.8164062 C 9.2421875 4.9914062 8.6137344 4.6484375 7.9277344 4.6484375 C 7.1247344 4.6484375 6.6749375 5.1272031 6.5859375 5.7832031 C 6.5679375 5.9202031 6.4583125 6.0332031 6.3203125 6.0332031 L 5.4960938 6.0332031 L 5.4941406 6.0332031 A 0.237 0.237 0 0 1 5.2558594 5.7851562 C 5.3498594 4.0901562 6.7378594 3.5 8.0058594 3.5 z M 7.8222656 10.609375 C 8.4312656 10.609375 8.8496094 10.996828 8.8496094 11.548828 C 8.8496094 12.081828 8.4293125 12.476562 7.8203125 12.476562 C 7.2363125 12.476562 6.8125 12.081828 6.8125 11.548828 C 6.8125 10.996828 7.2372656 10.609375 7.8222656 10.609375 z "
     style="fill:#000000;fill-opacity:1;fill-rule:evenodd"
     id="path10619" />
</svg>

<svg width="1em" height="1em" viewBox="0 0 16 16" class="bi bi-question-circle-fill" fill="currentColor" xmlns="http://www.w3.org/2000/svg">
  <path fill-rule="evenodd" d="M16 8A8 8 0 1 1 0 8a8 8 0 0 1 16 0zM5.496 6.033a.237.237 0 0 1-.24-.247C5.35 4.091 6.737 3.5 8.005 3.5c1.396 0 2.672.73 2.672 2.24 0 1.08-.635 1.594-1.244 2.057-.737.559-1.01.768-1.01 1.486v.105a.25.25 0 0 1-.25.25h-.81a.25.25 0 0 1-.25-.246l-.004-.217c-.038-.927.495-1.498 1.168-1.987.59-.444.965-.736.965-1.371 0-.825-.628-1.168-1.314-1.168-.803 0-1.253.478-1.342 1.134-.018.137-.128.25-.266.25h-.825zm2.325 6.443c-.584 0-1.009-.394-1.009-.927 0-.552.425-.94 1.01-.94.609 0 1.028.388 1.028.94 0 .533-.42.927-1.029.927z"/>
</svg>
